!!!OTL: Das Lehen.
!!!OTL-incipit: HERBEI HERBEI WAS JUNGGESELLEN SEYN
!!!ARE: Europa, Mitteleuropa, Deutschland, Niederrhein
!!!SCT: Z1320
!!!TXL: @@DE
!!!YEM: Copyright 1995, estate of Helmut Schaffrath.
**kern	**text
*ICvox	*
*M4/4	*
*met(c)	*
*k[f#]	*
*G:	*
!LO:TX:a:t=Alle.	!
!LO:TX:a:t=Vom Niederrhein.	!
{(>4a	Her-
4f#)	.
=1	=1
2g	-bei,
(>4a	her-
4f#)	.
=2	=2
2g}	-bei,
{2a	was
=3	=3
2g	Jung-
2a	-ge-
=4	=4
(>2g	-ſel-
4f#)	.
4e	-len
=5	=5
2d	ſeyn!
4r}	.
!LO:TX:a:t=Vorſänger.	!
{4d	Sie
=6	=6
4.g	kom-
8f#	-men
4e	ſchon
8aL	her-
8gJ	.
=7	=7
4.f#	-bei
8e	ge-
4.d}	-eilt,
{8d	die
=8	=8
4.g	Le-
8a	-hen
4b	wer-
4b	-den
=9	=9
8bL	aus-
8aJ	.
4a	-ge-
2g}	-theilt!
=10	=10
!LO:TX:a:t=Alle.	!
{4.f#	Un-
8a	-ſre
4b/	tol-
4dd/	-len
=11	=11
2ee/	Strei-
2dd/}	-che,
=12	=12
{2ee/	glei-
2dd/	-che
=13	=13
4.ee/	kein'
8dd/	im
4cc/	wei-
4b/	-ten
=14	=14
2a	Rei-
4g	-che!
4r	.
=15	=15
2ryy}	.
==	==
!!!AGN: Zech -, Schalks - Lied
!!!ONB: ESAC (Essen Associative Code) Database: ZUCCAL
!!!AMT: simple quadruple
!!!AIN: vox
!!!EED: Helmut Schaffrath
!!!EEV: 1.0
!!!RDF**kern: >= above
!!!GTL: VIII. Zech- und Schalks-Lieder.
!!!URL-scan: https://www.digitale-sammlungen.de/de/view/bsb11160573?page=586
!!!ENC: Anna Maria Matuszewska
!!!EEV: 2025/02/07
*-	*-
